computer_icons/svgs/avatar.svg

<?xml version="1.0" encoding="UTF-8" standalone="no"?>
<!-- Created with Inkscape (http://www.inkscape.org/) -->

<svg
   xmlns:dc="http://purl.org/dc/elements/1.1/"
   xmlns:cc="http://creativecommons.org/ns#"
   xmlns:rdf="http://www.w3.org/1999/02/22-rdf-syntax-ns#"
   xmlns:svg="http://www.w3.org/2000/svg"
   xmlns="http://www.w3.org/2000/svg"
   xmlns:sodipodi="http://sodipodi.sourceforge.net/DTD/sodipodi-0.dtd"
   xmlns:inkscape="http://www.inkscape.org/namespaces/inkscape"
   width="33"
   height="33"
   viewBox="0 0 8.7312498 8.7312502"
   version="1.1"
   id="svg8"
   inkscape:version="0.92.1 unknown"
   sodipodi:docname="avatar.svg">
  <defs
     id="defs2" />
  <sodipodi:namedview
     id="base"
     pagecolor="#ffffff"
     bordercolor="#666666"
     borderopacity="1.0"
     inkscape:pageopacity="0.0"
     inkscape:pageshadow="2"
     inkscape:zoom="7.9195959"
     inkscape:cx="27.205187"
     inkscape:cy="-5.3223735"
     inkscape:document-units="px"
     inkscape:current-layer="g4502"
     showgrid="false"
     units="px"
     inkscape:snap-global="true"
     showguides="true"
     inkscape:guide-bbox="true" />
  <metadata
     id="metadata5">
    <rdf:RDF>
      <cc:Work
         rdf:about="">
        <dc:format>image/svg+xml</dc:format>
        <dc:type
           rdf:resource="http://purl.org/dc/dcmitype/StillImage" />
        <dc:title></dc:title>
      </cc:Work>
    </rdf:RDF>
  </metadata>
  <g
     inkscape:label="tomb-stone"
     inkscape:groupmode="layer"
     id="layer1"
     transform="translate(0,-288.26873)">
    <g
       id="g4511"
       transform="matrix(0.26458333,0,0,0.26458333,0.13229168,288.40102)">
      <g
         id="text4577"
         style="font-style:normal;font-weight:normal;font-size:15.34520054px;line-height:1.25;font-family:sans-serif;letter-spacing:0px;word-spacing:0px;fill:#000000;fill-opacity:1;stroke:#000000;stroke-width:0.99507672;stroke-miterlimit:4;stroke-dasharray:none;stroke-opacity:1"
         transform="scale(1.0830723,0.92329939)"
         aria-label="T" />
      <g
         inkscape:label="test"
         id="layer1-6">
        <g
           id="text822"
           style="font-style:normal;font-variant:normal;font-weight:bold;font-stretch:normal;font-size:22.55261993px;line-height:1.25;font-family:sans-serif;-inkscape-font-specification:'sans-serif Bold';letter-spacing:0px;word-spacing:0px;fill:#000000;fill-opacity:1;stroke:none;stroke-width:0.56381553"
           transform="matrix(1.2275249,0,0,0.81464742,0.18321795,0)"
           aria-label="?" />
      </g>
    </g>
    <g
       aria-label="RIP"
       style="font-style:normal;font-weight:normal;font-size:3.52777767px;font-family:sans-serif;letter-spacing:0px;word-spacing:0px;fill:#000000;fill-opacity:1;stroke:none;stroke-width:0.26458332"
       id="text4530"
       transform="translate(0.10022607)">
      <g
         id="g4591"
         transform="matrix(1.1471828,0,0,1.1471828,-0.77947047,-42.44655)" />
    </g>
    <g
       id="g4494"
       transform="translate(0,0.918453)">
      <g
         id="g4502"
         transform="matrix(1.019907,0,0,1.0948746,-0.08749555,-27.388022)">
        <path
           style="opacity:1;vector-effect:none;fill:#ff9000;fill-opacity:1;fill-rule:evenodd;stroke:none;stroke-width:2.50281429px;stroke-linecap:butt;stroke-linejoin:miter;stroke-miterlimit:4;stroke-dasharray:none;stroke-dashoffset:0;stroke-opacity:1"
           d="M 16.5 2.5527344 A 7.2321429 7.2321429 0 0 0 9.2675781 9.7851562 A 7.2321429 7.2321429 0 0 0 16.5 17.017578 A 7.2321429 7.2321429 0 0 0 23.732422 9.7851562 A 7.2321429 7.2321429 0 0 0 16.5 2.5527344 z M 10.080078 15.523438 C 9.3650259 15.828002 8.6862989 16.227828 8.0761719 16.763672 C 5.361321 18.904274 3.8845698 22.565613 4.0253906 26.146484 C 3.9781582 29.031201 3.9856897 28.377374 4.0507812 31.261719 L 28.945312 31.261719 C 29.001766 27.751444 29.063908 27.773508 28.896484 24.267578 C 28.511443 20.504796 26.184676 16.975045 22.916016 15.523438 A 7.2388234 7.2889028 0 0 1 16.5 19.451172 A 7.2388234 7.2889028 0 0 1 10.080078 15.523438 z "
           transform="matrix(0.25941908,0,0,0.24165629,0.08578777,287.46516)"
           id="rect4513" />
      </g>
    </g>
  </g>
</svg>

<svg xmlns="http://www.w3.org/2000/svg" height="33" width="33" version="1.1" viewBox="0 0 8.7312498 8.7312502">
	<g transform="translate(.0000022322 -287.46)">
		<g transform="matrix(1.0199 0 0 1.0949 -.087496 -27.388)">
			<path style="fill:#ff9000;fill-rule:evenodd" transform="matrix(.25942 0 0 .24166 .085788 287.47)" d="m16.5 2.5527a7.2321 7.2321 0 0 0 -7.2324 7.2325 7.2321 7.2321 0 0 0 7.2324 7.2328 7.2321 7.2321 0 0 0 7.232 -7.2328 7.2321 7.2321 0 0 0 -7.232 -7.2325zm-6.42 12.97c-0.71505 0.30456-1.3938 0.70439-2.0039 1.2402-2.7149 2.1406-4.1916 5.8019-4.0508 9.3828-0.047232 2.8847-0.039701 2.2309 0.025391 5.1152h24.894c0.05645-3.5103 0.1186-3.4882-0.04883-6.9941-0.38504-3.7628-2.7118-7.2925-5.9805-8.7441a7.2388 7.2889 0 0 1 -6.416 3.928 7.2388 7.2889 0 0 1 -6.42 -3.928z"/>
		</g>
	</g>
</svg>
